!!!OTL: Prelude No. 13 in F-sharp major
**kern	**kern
*staff2	*staff1
*Icemba	*Icemba
*clefF4	*clefG2
*k[f#c#g#d#a#e#]	*k[f#c#g#d#a#e#]
*F#:	*F#:
*M3/4	*M3/4
*MM88	*MM88
=1-	=1-
8.F#\L	8.cc#/L
16G#\k	48b/LL
.	48a#/
.	48g#/JJJ
8.A#\	4.f#/
16G#\k	.
8.A#\	.
.	16r
16F#\Jk	16ff#\
=2	=2
8.c#\L	8.ee#\L
16B\k	32ff#\LL
.	32gg#\JJJ
8.A#\	4.cc#\
16d#\k	.
8.c#\	.
.	16r
16d#\Jk	16ff#\
=3	=3
8.G#\L	8.b/L
16A#\k	16dd#/k
8.B\	8.g#/
16G#\k	16b/k
8.c#\	8.e#/
16C#\Jk	16cc#/Jk
=4	=4
8.F#\L	16a#/LL
.	16cc#/
.	16f#/
16c#\k	16g#/JJ
8.c#\	16a#/LL
.	16f#/
.	16cc#/
16c#\k	16a#/JJ
8.A#\	16f#/LL
.	16a#/
.	16g#/
16c#\Jk	16f#/JJ
=5	=5
8.E#\L	16g#/LL
.	16cc#/
.	16e#/
16c#\k	16f#/JJ
8.c#\	16g#/LL
.	16e#/
.	16cc#/
16c#\k	16g#/JJ
8.G#\	16e#/LL
.	16g#/
.	16f#/
16c#\Jk	16e#/JJ
=6	=6
8.D#\L	16f#/LL
.	16a#/
.	16d#/
16c#\k	16e#/JJ
8.c#\	16f#/LL
.	16d#/
.	16a#/
16c#\k	16f#/JJ
8.F#\	16d#/LL
.	16f#/
.	16e#/
16B#\Jk	16d#/JJ
=7	=7
8.C#\L	16e#/LL
.	16g#/
.	16c#/
32G#\LL	16d#/JJ
32A#\JJJ	.
8.Bn\L	16e#/LL
.	16c#/
.	16g#/
16G#\k	16e#/JJ
8.E#\	16c#/LL
.	16b/
.	16a#/
16C#\Jk	16g#/JJ
=8	=8
8.F#\L	16a#/LL
.	16cc#/
.	16f#/
16C#\Jk	16g#/JJ
4FF#/	16a#/LL
.	16f#/
.	16cc#/
.	16a#/JJ
4r	16f#/LL
.	16g#/
.	16f#/
.	16e#/JJ
=9	=9
8.F##\L	16d#/LL
.	16a#/
.	16d#/
32A#\LL	16e#/JJ
32B\JJJ	.
8.c#\L	16f##/LL
.	16d#/
.	16a#/
16A#\k	16f##/JJ
8.F##\	16d#/LL
.	16cc#/
.	16b#/
16D#\Jk	16a#/JJ
=10	=10
8.G#\L	16b#\LL
.	16dd#\
.	16g#\
16D#\Jk	16a#\JJ
4GG#/	16b#\LL
.	16g#\
.	16dd#\
.	16b#\JJ
4r	16g#/LL
.	16a#/
.	16g#/
.	16f#/JJ
=11	=11
8.G##\L	16e#/LL
.	16b#/
.	16e#/
32B#\LL	16f##/JJ
32c#\JJJ	.
8.d#\L	16g##/LL
.	16e#/
.	16b#/
16B#\k	16g##/JJ
8.G##\	16e#/LL
.	16dd#/
.	16cc#/
16E#\Jk	16b#/JJ
=12	=12
[4A#\	8.cc#\L
.	16a#\Jk
8.A#\L]	[4ff#\
48A#\LL	.
48B#\	.
48c#\JJJ	.
8.d#\L	8.ff#\L]
16f#\Jk	48ee#\LL
.	48dd#\
.	48cc#\JJJ
=13	=13
[4B#\	8.dd#\L
.	16b#\Jk
8.B#\L]	[4gg#\
48c#\LL	.
48B#\	.
48A#\JJJ	.
8.B#\L	8gg#\L]
.	24ff#\L
.	24ee#\
16G#\Jk	.
.	24dd#\JJ
=14	=14
16c#\LL	8.ee#\L
16C#\	.
16D#\	.
16E#\JJ	16cc#\Jk
16F#/LL	8.aa#\L
16FF#/	.
16F#/	.
16E#/JJ	48gg#\LL
.	48ff#\
.	48ee#\JJJ
16F#/LL	8.dd#\L
16FF#/	.
16F#/	.
16E#/JJ	16ff#\Jk
=15	=15
.	(cc#q/
[4F#\	8.b#\L)
.	48dd#\LL
.	48ee#\
.	48ff#\JJJ
8.F#\L]	8.gg#\L
48D#\LL	16b#\k
48E#\	.
48F#\JJJ	.
8.E#\L	8.cc#\
48C#\LL	16g#\Jk
48D#\	.
48E#\JJJ	.
=16	=16
8.F#\L	8.a#/L
16D#\Jk	48g#/LL
.	48f#/
.	48e#/JJJ
8.G#\L	8.d#/L
48A#\LL	16cc#/k
48G#\	.
48F#\JJJ	.
8.G#/L	8.g#/
16GG#/Jk	16b#/Jk
=17	=17
8.C#\L	16cc#\LL
.	16g#\
.	16cc#\
48E#\LL	16dd#\JJ
48D#\	.
48C#\JJJ	.
4.G#\	16ee#\LL
.	16cc#\
.	16gg#\
.	16ee#\J
.	16cc#\L
.	16ee#\
16r	16dd#\
16c#\	16cc#\JJ
=18	=18
8.B#\L	16dd#\LL
.	16gg#\
.	16g#\
32c#\LL	16a#\JJ
32d#\JJJ	.
[4G#\	16b#\LL
.	16g#\
.	16dd#\
.	16b#\JJ
16G#\LL]	16g#\LL
16A#\	16ff#\
16G#\	16ee#\
16F#\JJ	16dd#\JJ
=19	=19
8.E#\L	16cc#\LL
.	16g#\
.	16cc#\
32D#\LL	16dd#\JJ
32C#\JJJ	.
8.Bn\L	16ee#\LL
.	16cc#\
.	16gg#\
16G#\k	16ee#\JJ
8.E#\	16cc#\LL
.	16bb\
.	16aa#\
16B\Jk	16gg#\JJ
=20	=20
16A#\LL	8.ff#\L
16c#\	.
16F#\	.
16G#\JJ	48b\LL
.	48a#\
.	48g#\JJJ
16A#\LL	4.f#/
16F#\	.
16c#\	.
16A#\J	.
16F#\L	.
16A#\	.
16G#\	16r
16F#\JJ	16ff#\
=21	=21
16G#\LL	8.ee#\L
16c#\	.
16C#\	.
16D#\JJ	32ff#\LL
.	32gg#\JJJ
16E#\LL	[4cc#\
16C#\	.
16G#\	.
16E#\JJ	.
16C#\LL	16cc#\LL]
16B\	16dd#\
16A#\	16cc#\
16G#\JJ	16b\JJ
=22	=22
16F#\LL	8.a#/L
16C#\	.
16F#\	.
16G#\JJ	32g#/LL
.	32f#/JJJ
16A#\LL	8.een\L
16F#\	.
16c#\	.
16A#\JJ	16cc#\k
16F#\LL	8.a#\
16en\	.
16d#\	.
16c#\JJ	16ee\Jk
=23	=23
8.B\L	16dd#\LL
.	16ff#\
.	16b\
16F#\k	16cc#\JJ
8.F#\	16dd#\LL
.	16b\
.	16ff#\
16B\k	16dd#\JJ
8.d#\	16b\LL
.	16dd#\
.	16cc#\
16F#\Jk	16b\JJ
=24	=24
8.A#\L	16cc#\LL
.	16ff#\
.	16a#\
16F#\k	16b\JJ
8.F#\	16cc#\LL
.	16a#\
.	16ff#\
16A#\k	16cc#\JJ
8.c#\	16a#\LL
.	16cc#\
.	16b\
16F#\Jk	16a#\JJ
=25	=25
8.G#\L	16b\LL
.	16dd#\
.	16g#\
16F#\k	16a#\JJ
8.F#\	16b\LL
.	16g#\
.	16dd#\
16G#\k	16b\JJ
8.B\	16g#/LL
.	16b/
.	16a#/
16E#\Jk	16g#/JJ
=26	=26
16F#\LL	8.a#\L
16c#\	.
16F#\	.
16G#\J	16cc#\Jk
16A#\L	8.cc#\L
16F#\	.
16c#\	.
16A#\JJ	32b#\LL
.	32cc#\JJJ
16F#\LL	8.cc#\L
16A#\	.
16G#\	.
16F#\JJ	32b#\LL
.	32cc#\JJJ
=27	=27
16E#\LL	8.g#/L
16c#\	.
16E#\	.
16F#\JJ	16cc#/Jk
16G#\LL	8.cc#\L
16E#\	.
16c#\	.
16G#\JJ	32b#\LL
.	32cc#\JJJ
16E#\LL	8.cc#\L
16G#\	.
16F#\	.
16E#\JJ	32b#\LL
.	32cc#\JJJ
=28	=28
16D#\LL	8.f#\L
16c#\	.
16D#\	.
16E#\JJ	16cc#\k
16F#\LL	8.aa#\
16D#\	.
16c#\	.
16F#\JJ	16cc#\k
16D#\LL	8.b#\
16F#\	.
16E#\	.
16D#\JJ	16cc#\Jk
=29	=29
16C#\LL	4.cc#\
16c#\	.
16C#\	.
16D#\JJ	.
16E#\LL	.
16C#\	.
16G#\	32r
.	32cc#\LLL
16E#\JJ	32dd#\
.	32ee#\JJJ
16BB/LL	8.ee#\L
16D#/	.
16C#/	.
16BB/JJ	32dd#\LL
.	32ee#\JJJ
=30	=30
4.AA#/	16ff#\LL
.	16cc#\
.	16f#\
.	16g#\JJ
.	16a#/LL
.	16f#/
32r	16cc#/
32F#\LLL	.
32G#\	16a#/JJ
32A#\JJJ	.
8.A#\L	16en/LL
.	16g#/
.	16f#/
32G#\LL	16e/JJ
32A#\JJJ	.
=31	=31
16B\LL	4.d#/
16F#\	.
16BB\	.
16C#\JJ	.
16D#\LL	.
16BB\	.
16F#\	32r
.	32dd#\LLL
16D#\JJ	32cc##\
.	32dd#\JJJ
16AA#/LL	8.dd#\L
16C#/	.
16BB/	.
16AA#/JJ	32cc##\LL
.	32dd#\JJJ
=32	=32
4.GG#/	16ee#/LL
.	16b/
.	16e#/
.	16f#/JJ
.	16g#/LL
.	16e#/
32r	16b/
32G#\LLL	.
32F##\	16g#/JJ
32G#\JJJ	.
8.G##\L	16d#/LL
.	16f#/
.	16e#/
32F##\LL	16d#/JJ
32G##\JJJ	.
=33	=33
16A#\LL	8.c##/L
16E#\	.
16AA#\	.
16BB#\JJ	32d#/LL
.	32e#/JJJ
16C##/LL	[4A#/
16AA#/	.
16E#/	.
16C##/JJ	.
16GG#/LL	16A#/LL]
16BBn/	16g#/
16AA#/	16f#/
16GG#/JJ	16e#/JJ
=34	=34
8.FF#/L	16d#/LL
.	16f#/
.	16a#/
16A#/k	16f#/JJ
8.A#/	16dd#\LL
.	16a#\
.	16ff#\
16F#/k	16dd#\JJ
8.F#/	16a#\LL
.	16dd#\
.	16cc##\
16D#/Jk	16b#\JJ
=35	=35
8.EE#/L	16cc##\LL
.	16ee#\
.	16a#\
16A#/k	16b#\JJ
8.A#/	16cc##\LL
.	16a#\
.	16gg#\
16E#/k	16ee#\JJ
8.E#/	16cc##\LL
.	16bbn\
.	16aa#\
16C##/Jk	16gg#\JJ
=36	=36
8.DD#/L	16ff#\LL
.	16aa#\
.	16dd#\
16A#/k	16ee#\J
8.A#/	16ff#\L
.	16dd#\
.	16aa#\
16D#/k	16ff#\J
8.D#/	16dd#\L
.	16ff#\
.	16ee#\
16BB#/Jk	16dd#\JJ
=37	=37
8.CC##/L	16ee#\LL
.	16aa#\
.	16a#\
16A#/k	16b#\JJ
8.A#/	16cc##\LL
.	16a#\
.	16ee#\
16C##/k	16cc##\JJ
8.C##/	16a#\LL
.	16gg#\
.	16ff#\
16AA#/Jk	16ee#\JJ
=38	=38
16D#\LL	8.ff#\L
16A#\	.
16D#\	.
16E#\JJ	16cc##\Jk
16F#\LL	8.dd#/L
16D#\	.
16A#\	.
16F#\JJ	48f#/LL
.	48e#/
.	48d#/JJJ
16D#\LL	8.g##/L
16F#\	.
16E#\	.
16D#\JJ	32f##/LL
.	32g##/JJJ
=39	=39
16C#\LL	16a#/LL
16A#\	16e#/
16C#\	16a#/
16D#\JJ	16b#/JJ
16E#\LL	16cc#\LL
16C#\	16a#\
16A#\	16ee#\
16E#\JJ	16cc#\JJ
16C#\LL	16aa#\LL
16E#\	16gg#\
16D#\	16ff#\
16C#\JJ	16ee#\JJ
=40	=40
16BB\LL	16dd#\LL
16A#\	16cc##\J
16BB\	8dd#\J
16C#\JJ	.
16D#\LL	8r
16BB\	.
16G#\	32r
.	32dd#\LLL
16D#\JJ	32ee#\
.	32ff##\JJJ
16BB/LL	8.gg#\L
16D#/	.
16C#/	.
16BB/JJ	16gg#\Jk
=41	=41
16AA#\LL	16gg#\LL
16A#\	16ee#\
16AA#\	16cc##\
16BB#\JJ	16dd#\JJ
16C##/LL	16ee#\LL
16AA#/	16cc##\
16E#/	16g#\
16C##/JJ	16bn\JJ
.	(d#q/
16GG#/LL	8.c##/L)
16BBn/	.
16AA#/	.
16GG#/JJ	16b/Jk
=42	=42
16FF#/LL	8.a#/L
16AA#/	.
16D#/	.
16E#/JJ	48g#/LL
.	48f#/
.	48e#/JJJ
16F#\LL	4.d#/
16D#\	.
16F#\	.
16G#\JJ	.
16A#\LL	.
16F#\	.
16B\	16r
16B\JJ	16dd#\
=43	=43
.	(dd#q/
[4B\	8.cc#\L)
.	48dd#\LL
.	48ee#\
.	48ff#\JJJ
8.B\L]	4.gg#\
48A#\LL	.
48G#\	.
48F#\JJJ	.
8.E#\L	.
.	16r
16c##\Jk	16aa#\
=44	=44
.	gg#q/
8.d#\L	8.ff#\L
16G#\k	16ee#\Jk
8.A#\	4.cc##\
48B\LL	.
48A#\	.
48G#\JJJ	.
8.A#\L	.
.	8dd#\
16AA#\Jk	.
=45	=45
8.D#\L	16dd#/LL
.	16a#/
.	16f#/
16d#\k	16g#/JJ
8.d#\	16a#/LL
.	16f#/
.	16dd#/
16d#\k	16a#/JJ
8.A#\	16f#/LL
.	16g#/
.	16f#/
16d#\Jk	16e#/JJ
=46	=46
8.C#\L	16f##/LL
.	16dd#/
.	16f##/
16d#\k	16g#/JJ
8.d#\	16a#/LL
.	16f##/
.	16dd#/
16d#\k	16a#/JJ
8.A#\	16f##/LL
.	16a#/
.	16g#/
16d#\Jk	16f##/JJ
=47	=47
8.BB\L	16g#\LL
.	16dd#\
.	16g#\
16d#\k	16a#\JJ
8.d#\	16b\LL
.	16g#\
.	16dd#\
16d#\k	16b\JJ
8.B\	16g#/LL
.	16b/
.	16a#/
16d#\Jk	16g#/JJ
=48	=48
8.F##\L	16a#\LL
.	16dd#\
.	16a#\
16d#\k	16b\JJ
8.d#\	16cc#\LL
.	16a#\
.	16een\
16d#\k	16cc#\JJ
8.c#\	16a#\LL
.	16cc#\
.	16b\
16d#\Jk	16a#\JJ
=49	=49
16G#/LL	8.b/L
16D#/	.
16GG#/	.
16AA#/JJ	16f##/k
16BB/LL	8.g#/
16GG#/	.
16D#/	.
16BB/J	16b/Jk
16GG#/L	8.dd#\L
16C#/	.
16BB/	.
16AA#/JJ	48gg#\LL
.	48ff#\
.	48ee#\JJJ
=50	=50
16BB#\LL	8.ff#\L
16G#\	.
16BB#\	.
16C#\JJ	16f##\k
16D#\LL	8.g#\
16BB#\	.
16G#\	.
16D#\JJ	16b#\Jk
16BB#/LL	8.dd#\L
16D#/	.
16C#/	.
16BB#/JJ	48ff#\LL
.	48ee#\
.	48dd#\JJJ
=51	=51
16C#\LL	8.ee#\L
16G#\	.
16C#\	.
16D#\JJ	16f##\k
16E#\LL	8.g#\
16C#\	.
16G#\	.
16E#\JJ	16cc#\Jk
16C#\LL	8.ee#/L
16E#\	.
16D#\	.
16C#\JJ	48g#/LL
.	48f#/
.	48e#/JJJ
=52	=52
16D#\LL	8.f#/L
16G#\	.
16D#\	.
16E#\J	16a#/k
16F#\L	8.d#/
16D#\	.
16A#\	.
16F#\JJ	16cc#/Jk
16D#\LL	8.b#/L
16F#\	.
16E#\	.
16D#\JJ	32a#/LL
.	32b#/JJJ
=53	=53
16E#\LL	16cc#/LL
16G#\	16g#/
16c#\	16e#/
16G#\JJ	16f#/JJ
16E#\LL	16g#/LL
16G#\	16e#/
16C#\	16cc#/
16E#\JJ	16g#/JJ
16G#\LL	16e#/LL
16C#\	16f#/
16G#\	16e#/
16A#\JJ	16d#/JJ
=54	=54
8.B\L	16c#/LL
.	16g#/
.	16e#/
48c#\LL	16f#/JJ
48B\	.
48A#\JJJ	.
[4B\	16g#/LL
.	16e#/
.	16cc#/
.	16g#/JJ
8.B\L]	16e#/LL
.	16g#/
.	16f#/
48G#\LL	16e#/JJ
48A#\	.
48B\JJJ	.
=55	=55
16A#\LL	16f#/LL
16F#\	16cc#/
16A#\	16f#/
16G#\JJ	16g#/JJ
16F#\LL	16a#/LL
16A#\	16f#/
16C#\	16cc#/
16F#\J	16a#/JJ
16A#\L	16f#/LL
16F#\	16a#/
16G#\	16g#/
16A#\JJ	16f#/JJ
=56	=56
8.E#\L	16g#/LL
.	16cc#/
.	16g#/
16c#\Jk	16a#/JJ
8.C#\L	16b/LL
.	16g#/
.	16dd#/
48C#\LL	16b/JJ
48D#\	.
48E#\JJJ	.
8.E#\L	16g#/LL
.	16b/
.	16a#/
32D#\LL	16g#/JJ
32E#\JJJ	.
=57	=57
8.F#\L	16a#/LL
.	32cc#/L
.	32b/
.	32a#/
.	32g#/
16G#\k	32f#/
.	32e#/JJJ
8.A#\	4.f#/
16G#\k	.
8.A#\	.
.	16r
16F#\Jk	16ff#\
=58	=58
8.c#\L	8.ee#\L
16B\k	32ff#\LL
.	32gg#\JJJ
8.A#\	4.cc#\
16d#\k	.
8.c#\	.
.	16r
16d#\Jk	16ff#\
=59	=59
8.G#\L	8.b/L
16A#\k	16dd#/k
8.B\	8.g#/
16G#\k	16b/k
8.c#\	8.e#/
16C#\Jk	16cc#/Jk
=60	=60
8.F#\L	16a#/LL
.	16cc#/
.	16f#/
32En\LL	16g#/JJ
32D#\JJJ	.
8.E/L	16a#/LL
.	16f#/
.	16cc#/
16C#/k	16a#/JJ
8.AA#/	16f#\LL
.	16een\
.	16dd#\
16FF#/Jk	16cc#\JJ
=61	=61
8.BB\L	16dd#\LL
.	16ff#\
.	16b\
16F#\Jk	16cc#\JJ
4B\	16dd#\LL
.	16b\
.	16ff#\
.	16dd#\JJ
4r	16a#\LL
.	16cc#\
.	16b\
.	16a#\JJ
=62	=62
8.BB#/L	16g#\LL
.	16dd#\
.	16g#\
32D#/LL	16a#\JJ
32E#/JJJ	.
8.F#/L	16b#\LL
.	16g#\
.	16dd#\
16D#/k	16b#\JJ
8.BB#/	16g#\LL
.	16ff#\
.	16ee#\
16GG#/Jk	16dd#\JJ
=63	=63
8.C#\L	16ee#\LL
.	16gg#\
.	16cc#\
16G#\Jk	16dd#\J
4c#\	16ee#\L
.	16cc#\
.	16gg#\
.	16ee#\JJ
4r	16bn\LL
.	16dd#\
.	16cc#\
.	16b\JJ
=64	=64
8.C##\L	16a#\LL
.	16ee#\
.	16a#\
32E#\LL	16b#\JJ
32F#\JJJ	.
8.G#\L	16cc##\LL
.	16a#\
.	16ee#\
16E#\k	16cc##\JJ
8.C##\	16a#\LL
.	16gg#\
.	16ff#\
16AA#\Jk	16ee#\JJ
=65	=65
[4D#\	8.ff#\L
.	16dd#\Jk
8.D#\L]	[4bb\
48D#\LL	.
48E#\	.
48F#\JJJ	.
8.G#\L	8.bb\L]
16B\Jk	48aa#\LL
.	48gg#\
.	48ff#\JJJ
=66	=66
[4E#\	8.gg#\L
.	16bb\Jk
8.E#\L]	[4cc#\
48F#\LL	.
48E#\	.
48D#\JJJ	.
8.E#\L	8.cc#\L]
16C#\Jk	96dd#\LLL
.	96ee#\J
.	48ff#\
.	48gg#\JJJ
=67	=67
*^	*
2r	8.F#\L	8.aa#\L
.	16B\Jk	16gg#\Jk
.	8.c#\L	4.ee#\
.	48G#\LL	.
.	48A#\	.
.	48B\JJJ	.
8.C#/L	4C#\	.
.	.	8ff#\
16B/Jk	.	.
=68	=68	=68
8.A#/	8.F#\L	16ff#\LL
.	.	16aa#\
.	.	16cc#\
16r	16c#\k	16ee#\J
2r	8.c#\	16ff#\L
.	.	16cc#\
.	.	16aa#\
.	16c#\k	16ff#\JJ
.	8.A#\	16cc#\LL
.	.	16gg#\
.	.	16ff#\
.	16c#\Jk	16ee#\JJ
*v	*v	*
=69	=69
8.En\L	16ff#\LL
.	16cc#\
.	16a#\
16c#\k	16b\JJ
8.A#\	16cc#\LL
.	16a#\
.	16ff#\
16E\k	16cc#\JJ
8.E\	16a#/LL
.	16b/
.	16a#/
16D#\Jk	16g#/JJ
=70	=70
8.D#\L	16f#/LL
.	16an/
.	16B#/
16An\k	16e#/J
8.A\	16f#/L
.	16B#/
.	16a/
16A\k	16f#/J
8.F#\	16B#/L
.	16g#/
.	16f#/
16A\Jk	16e#/JJ
=71	=71
8.C#\L	16f#/LL
.	16an/
.	16cc#/
16E#\k	16b/JJ
8.F#\	16a/LL
.	16cc#/
.	16f#/
16C#\k	16a/JJ
8.C#\	16cc#\LL
.	16a\
.	16cc#\
16BB#\Jk	16ee#\JJ
=72	=72
8.BB#\L	16ff#\LL
.	16aan\
.	16dd#\
16B#\k	16ee#\JJ
8.B#\	16ff#\LL
.	16dd#\
.	16aa\
16d#\k	16ff#\J
8.G#\	16dd#\L
.	16ff#\
.	16ee#\
16F#\Jk	16dd#\JJ
=73	=73
*^	*^
4E#/	4BBn\	4gg#/	4g#\ 4cc#\ 4ee#\
2r	8r	8r	8r
.	16r	16r	16r
.	16B\	16ee#/	16g#\ 16cc#\
.	8A#\	16.ff#/LL	16f#\ 16cc#\
.	.	.	16r
.	.	64ee#/LL	.
.	.	64dd#/J	.
.	8r	32cc#/	8r
.	.	32b/	.
.	.	32a#/	.
.	.	32g#/JJJ	.
=74	=74	=74	=74
8r	8r	8.f#/L	8r
16r	16r	.	16r
16A#/	16BB#\	16dd#/Jk	16f#\
8.G#/L	2C#\	(4f#/	2c#\
16A#/Jk	.	.	.
4Bn/	.	8.e#/L)	.
.	.	16f#/Jk	.
=75	=75	=75	=75
2.A#/	2.FF#\	2.f#/	2.c#\
*v	*v	*	*
*	*v	*v
==	==
*-	*-
!!!ENC: Craig Stuart Sapp
!!!END: 2008/01/29
